brandFactory_export/2.Regular/Vaso_Bar_Beber_2Regular.svg

<?xml version="1.0" encoding="UTF-8"?>
<svg width="24px" height="24px" viewBox="0 0 24 24" version="1.1" xmlns="http://www.w3.org/2000/svg" xmlns:xlink="http://www.w3.org/1999/xlink">
    <title>2.Regular/Vaso_Bar_Beber_2Regular</title>
    <g id="Symbols" stroke="none" stroke-width="1" fill="none" fill-rule="evenodd">
        <g id="2.Regular/Vaso_Bar_Beber_2Regular" fill="#5CB615" fill-rule="nonzero">
            <path d="M17.5663866,5.11932773 L16.2689076,5.11932773 L15.5764706,8 L17.5092437,8 L17.8319328,5.28739496 C17.8252101,5.23361345 17.707563,5.11932773 17.5663866,5.11932773 Z M15.8621849,21.8756303 L17.3310924,9.48907563 L15.2168067,9.48907563 L12.5445378,20.6285714 C12.4369748,21.0285714 12.0268908,21.2672269 11.6268908,21.1596639 C11.2403361,21.0588235 11.005042,20.6722689 11.0857143,20.2789916 L13.6739496,9.48907563 L4.00336134,9.48907563 L5.46890756,21.7848739 C5.47226891,22.0134454 5.58991597,22.1278034 5.73109244,22.1278034 L15.6067227,22.1278034 C15.7478992,22.1310924 15.8621849,22.0168067 15.8621849,21.8756303 Z M3.77142857,5.11932773 C3.6302521,5.11932773 3.51596639,5.23361345 3.51596639,5.37478992 L3.82857143,8 L14.0336134,8 L14.7260504,5.11932773 L3.77142857,5.11932773 Z M21.3210084,2.55462185 C21.6806723,2.75294118 21.8084034,3.20672269 21.610084,3.56638655 L21.610084,3.5697479 C21.4117647,3.92941176 20.9579832,4.0605042 20.5983193,3.85882353 C20.594958,3.85882353 20.594958,3.85546218 20.5915966,3.85546218 L17.0453782,1.8789916 L16.6252101,3.62689076 L17.5630252,3.62689076 C18.5310924,3.62689076 19.3210084,4.41008403 19.3210084,5.37478992 L17.3546218,21.9630252 C17.3579832,22.8403361 16.5747899,23.6235294 15.6033613,23.6235294 L5.73109244,23.6235294 C4.76302521,23.6235294 3.97983193,22.8436975 3.97647059,21.8756303 L2.02015733,5.46218487 C2.01680672,4.41008403 2.80336134,3.62689076 3.77142857,3.62689076 L15.0890756,3.62689076 L15.8184874,0.571428571 C15.8722689,0.342857143 16.0302521,0.154621849 16.2453782,0.0638655462 C16.4605042,-0.0302521008 16.7058824,-0.0201680672 16.9109244,0.0941176471 L21.3210084,2.55462185 Z M8.23529412,13.794958 C9.17310924,12.8605042 8.49747899,12.0403361 8.29915966,11.8386555 L8.20840336,11.7478992 C8.08739496,11.6336134 7.72773109,11.3310924 7.25042017,11.3310924 C6.9512605,11.3310924 6.60840336,11.4487395 6.2487395,11.805042 C5.31764706,12.7327731 6,13.5663866 6.18823529,13.7680672 L6.28235294,13.8621849 C6.40672269,13.9831933 6.75630252,14.2823529 7.22689076,14.2823529 C7.52268908,14.2789916 7.87226891,14.1579832 8.23529412,13.794958 L8.23529412,13.794958 Z M9.01512605,11.1428571 C9.82521008,11.9697479 10.1142857,13.3277311 8.94117647,14.497479 C8.29915966,15.1394958 7.65378151,15.2705882 7.22689076,15.2705882 C6.38991597,15.2705882 5.79831933,14.7798319 5.58319328,14.5680672 L5.46554622,14.4504202 C4.66890756,13.6134454 4.38319328,12.2554622 5.54285714,11.0991597 C6.17815126,10.4672269 6.82352941,10.3327731 7.25042017,10.3327731 C8.08739496,10.3327731 8.68235294,10.8201681 8.90084034,11.0285714 C8.93445378,11.0621849 8.97815126,11.102521 9.01512605,11.1428571 Z M9.66386555,18.5781513 C10.1848739,18.0571429 9.80840336,17.6033613 9.69747899,17.4890756 L9.64705882,17.4386555 C9.57983193,17.3747899 9.38151261,17.2067227 9.11596639,17.2067227 C8.9512605,17.2067227 8.75966387,17.2739496 8.55798319,17.4722689 C8.04033613,17.9865546 8.42016807,18.4504202 8.52436975,18.5613445 C8.54117647,18.5781513 8.55798319,18.5983193 8.57815126,18.6151261 C8.64537815,18.6823529 8.84369748,18.8504202 9.10252101,18.8504202 C9.26722689,18.8504202 9.45882353,18.7798319 9.66386555,18.5781513 Z M10.3394958,16.7226891 L10.4168067,16.8 C10.9983193,17.394958 11.2302521,18.4268908 10.3697479,19.2840336 C9.90252101,19.7478992 9.42521008,19.8453782 9.10252101,19.8453782 C8.66218487,19.8453782 8.21512605,19.6537815 7.8789916,19.3277311 L7.80168067,19.2504202 C7.2302521,18.6487395 6.99831933,17.6201681 7.85210084,16.7697479 C8.31260504,16.312605 8.79327731,16.2151027 9.11596639,16.2151027 C9.74117647,16.2117647 10.1781513,16.5714286 10.3394958,16.7226891 L10.3394958,16.7226891 Z" id="Vaso_Bar_Beber_2Regular"></path>
        </g>
    </g>
</svg>

<svg width="24" height="24" viewBox="0 0 24 24" xmlns="http://www.w3.org/2000/svg"><path d="M17.566 5.12H16.27L15.576 8h1.933l.323-2.713c-.007-.053-.124-.168-.266-.168zm-1.704 16.756l1.47-12.387h-2.115l-2.672 11.14a.75.75 0 01-1.46-.35l2.589-10.79h-9.67l1.465 12.296c.003.228.12.343.262.343h9.876a.25.25 0 00.255-.252zM3.772 5.119a.255.255 0 00-.256.256L3.829 8h10.205l.692-2.88H3.771zM21.32 2.555c.36.198.487.652.29 1.011v.004a.741.741 0 01-1.013.289c-.003 0-.003-.004-.006-.004L17.045 1.88l-.42 1.748h.938c.968 0 1.758.783 1.758 1.748l-1.966 16.588c.003.877-.78 1.66-1.752 1.66H5.731c-.968 0-1.751-.78-1.755-1.747L2.02 5.462c-.003-1.052.783-1.835 1.751-1.835H15.09L15.82.57a.73.73 0 01.426-.507.748.748 0 01.666.03l4.41 2.46zM8.235 13.795c.938-.934.262-1.755.064-1.956l-.09-.091c-.122-.114-.481-.417-.959-.417-.299 0-.642.118-1.001.474-.931.928-.249 1.761-.06 1.963l.093.094c.125.121.474.42.945.42.296-.003.645-.124 1.008-.487zm.78-2.652c.81.827 1.1 2.185-.074 3.354-.642.642-1.287.774-1.714.774-.837 0-1.429-.491-1.644-.703l-.117-.118c-.797-.837-1.083-2.195.077-3.35.635-.633 1.28-.767 1.707-.767.837 0 1.432.487 1.65.696.034.033.078.074.115.114zm.649 7.435c.52-.52.144-.975.033-1.089l-.05-.05c-.067-.064-.265-.232-.531-.232-.165 0-.356.067-.558.265-.518.515-.138.978-.034 1.09.017.016.034.036.054.053.067.067.266.235.525.235.164 0 .356-.07.56-.272zm.675-1.855l.078.077c.581.595.813 1.627-.047 2.484-.467.464-.945.561-1.267.561a1.79 1.79 0 01-1.224-.517l-.077-.078c-.572-.601-.804-1.63.05-2.48.46-.457.941-.555 1.264-.555.625-.003 1.062.356 1.223.508z" fill="#5CB615" fill-rule="nonzero"/></svg>
